X:71
T:Boyer's Maggot. Ru2.071
%%VWML:RutherfordVol2-2249-p36-0
F:http://www.vwml.org/record/RutherfordVol2/2249/p36
R:Maggot
B:RUTHERFORD Complete Collection of 200 Country Dances Vol.2; 1759.
Z:vmp.Mike Hicken 2015 www.village-music-project.org.uk
N: The final symbol of dance notation in the original is :|
M:C|
K:G
|:G>DD>E G>AB>G|A>FE>D A>Bc>A|B>GG>A B>cd>B|cAdB G/G/G G2 :|
|: (B/c/d) d2 BcdB|(c/d/e) e2 cdec|(B/c/d) d2 efge|cAdB G/G/G G2 :|
W:
W: The firs & 2d Cu: Right & Left half round.|  the
W: same back again :|  cross over two Cu: .|.  Lead up
W: to the top & cast off :|.  foot it corners & turn .||.
W: Lead out sides & turn :|
T:Eau de Luce. Ru2.072
L:1/8
B:RUTHERFORD Complete Collection of 200 Country Dances Vol.2; 1759.
Z:vmp.Mike Hicken 2015 www.village-music-project.org.uk
N: *  These quavers are not shown as triplets in the original but they have been added to give the correct rhythm.
M:C|
K:F
(3Acf (3agf e2f2|B>cA>B G/G/G G2 |(3Acf (3agf e2f2|A>BG>A F/F/F F2 :|
|:(3Acf (3Acf "*"(3Bdf "*"(3Bdf|"*"(3Acf "*"(3Acf a2f2| "*"(3Acf "*"(3Acf "*"(3Bdf "*"(3Bdf|"*"(3def "*"(3ece f2F2 :|
W:
W: The firs Cu: foot: it & cast off one Cu: cast up
W: again .|  Gallop down one Cu: up again & cast off :|
W: Lead thro' the 3d Cu: cast up into the 2d Cu: place .|.
W: foot it & Right & left at top :|.
